src/16/actions/format-indent-more.svg

<svg xmlns="http://www.w3.org/2000/svg" viewBox="0 0 16 16"><path d="M2 2v1h12V2H2zm0 2v1h9V4H2zm0 3v5l3-2.5L2 7zm5 1v1h7V8H7zm0 2v1h2v-1H7zm-5 3v1h12v-1H2z" fill="currentColor" color="#5d656b"/></svg>

<svg xmlns="http://www.w3.org/2000/svg" viewBox="0 0 16 16">
  <defs id="defs3051">
    <style type="text/css" id="current-color-scheme">
      .ColorScheme-Text {
        color:#5d656b;
      }
      </style>
  </defs>
 <path style="fill:currentColor;fill-opacity:1;stroke:none" 
       d="M 2 2 L 2 3 L 14 3 L 14 2 L 2 2 z M 2 4 L 2 5 L 11 5 L 11 4 L 2 4 z M 2 7 L 2 12 L 5 9.5 L 2 7 z M 7 8 L 7 9 L 14 9 L 14 8 L 7 8 z M 7 10 L 7 11 L 9 11 L 9 10 L 7 10 z M 2 13 L 2 14 L 7 14 L 8 14 L 12 14 L 14 14 L 14 13 L 12 13 L 8 13 L 7 13 L 2 13 z "
     class="ColorScheme-Text"
     />
</svg>
